src/assets/tshirthack.svg

<svg width="144" height="144" viewBox="0 0 144 144" fill="none" xmlns="http://www.w3.org/2000/svg">
<path d="M44.5166 21.3109C42.6833 19.8109 34.8166 19.6109 20.0166 30.8109C5.2166 42.0109 0.849935 49.8109 0.516602 52.3109C2.34993 55.8109 2.5166 58.8109 16.5166 71.8109C17.6158 72.8316 29.0166 65.8109 32.5166 59.8109C34.5166 67.1443 38.1166 84.1109 36.5166 93.3109C34.5166 104.811 40.5166 134.311 36.5166 141.811" stroke="black" stroke-linecap="round"/>
<path d="M99.5166 21.0435C101.35 19.5435 108.717 19.3435 123.517 30.5435C138.317 41.7435 142.683 49.5435 143.017 52.0435C141.183 55.5435 141.017 58.5435 127.017 71.5435C125.917 72.5642 114.517 65.5435 111.017 59.5435C109.017 66.8768 105.417 83.8435 107.017 93.0435C109.017 104.544 103.017 134.044 107.017 141.544" stroke="black" stroke-linecap="round"/>
<path d="M36.5166 141.811C42.8499 142.644 57.7166 144.311 66.5166 142.311C77.5166 139.811 97.0166 139.311 100.517 140.811C103.317 142.011 106.017 141.811 107.017 141.811" stroke="black" stroke-linecap="round"/>
<path d="M44.5166 21.3109L44.341 20.8428C44.1982 20.8963 44.0876 21.0122 44.0407 21.1574C43.9939 21.3026 44.0159 21.4613 44.1006 21.5883L44.5166 21.3109ZM93.0166 25.8109L92.7594 25.3822L93.0166 25.8109ZM99.5166 20.8109L99.9326 21.0883C100.057 20.9019 100.042 20.6556 99.8962 20.4855L99.5166 20.8109ZM48.5166 19.8109L48.6102 19.3197C48.52 19.3026 48.4269 19.3105 48.341 19.3428L48.5166 19.8109ZM96.5166 17.3109L96.8962 16.9855C96.7769 16.8464 96.5911 16.7836 96.4118 16.822L96.5166 17.3109ZM65.5166 21.3109L65.4783 20.8124L65.5166 21.3109ZM87.0166 19.3109L87.1147 19.8012L87.0166 19.3109ZM52.5166 23.8674L52.2236 24.2725L52.5166 23.8674ZM65.0166 23.8109L64.9081 23.3228L65.0166 23.8109ZM44.5166 21.3109L44.1006 21.5883C44.9642 22.8836 46.652 24.8493 48.9381 26.5957C51.2246 28.3425 54.1397 29.8927 57.4546 30.3071L57.5166 29.8109L57.5786 29.3148C54.4936 28.9291 51.7419 27.4793 49.5451 25.8011C47.3479 24.1225 45.7357 22.2382 44.9326 21.0336L44.5166 21.3109ZM57.5166 29.8109L57.4546 30.3071C61.4369 30.8048 64.8345 31.3077 67.7762 31.6206C70.7243 31.9342 73.2672 32.0639 75.5718 31.8079L75.5166 31.3109L75.4614 30.814C73.266 31.0579 70.8089 30.9376 67.882 30.6262C64.9487 30.3142 61.5963 29.817 57.5786 29.3148L57.5166 29.8109ZM75.5166 31.3109L75.5718 31.8079C77.8758 31.5519 81.6671 30.5377 85.1696 29.4119C88.6627 28.2891 91.967 27.0238 93.2738 26.2397L93.0166 25.8109L92.7594 25.3822C91.5662 26.0981 88.3705 27.3327 84.8636 28.4599C81.3661 29.5841 77.6574 30.57 75.4614 30.814L75.5166 31.3109ZM93.0166 25.8109L93.2738 26.2397C94.999 25.2045 97.8503 24.2117 99.9326 21.0883L99.5166 20.8109L99.1006 20.5336C97.1829 23.4101 94.6722 24.2345 92.7594 25.3822L93.0166 25.8109ZM56.0166 25.8109L55.8309 26.2752C60.8988 28.3023 67.9814 29.3179 72.5718 28.8079L72.5166 28.3109L72.4614 27.814C68.0518 28.3039 61.1344 27.3195 56.2023 25.3467L56.0166 25.8109ZM72.5166 28.3109L72.5718 28.8079C77.0306 28.3124 82.6638 27.8086 86.7816 25.2349L86.5166 24.8109L86.2516 24.3869C82.3694 26.8133 77.0026 27.3094 72.4614 27.814L72.5166 28.3109ZM99.5166 20.8109L99.8962 20.4855L96.8962 16.9855L96.5166 17.3109L96.137 17.6363L99.137 21.1363L99.5166 20.8109ZM44.5166 21.3109L44.6922 21.7791L48.6922 20.2791L48.5166 19.8109L48.341 19.3428L44.341 20.8428L44.5166 21.3109ZM48.5166 19.8109L48.423 20.3021C51.9256 20.9692 60.2828 22.215 65.555 21.8094L65.5166 21.3109L65.4783 20.8124C60.3504 21.2068 52.1077 19.9859 48.6102 19.3197L48.5166 19.8109ZM65.5166 21.3109L65.555 21.8094C68.8055 21.5594 73.5577 21.1842 77.8105 20.809C82.0454 20.4353 85.8307 20.058 87.1147 19.8012L87.0166 19.3109L86.9185 18.8206C85.7025 19.0638 81.9878 19.4365 77.7227 19.8129C73.4755 20.1876 68.7277 20.5624 65.4783 20.8124L65.5166 21.3109ZM87.0166 19.3109L87.1147 19.8012C89.1188 19.4004 94.2892 18.2996 96.6214 17.7998L96.5166 17.3109L96.4118 16.822C94.0773 17.3223 88.9144 18.4214 86.9185 18.8206L87.0166 19.3109ZM48.5166 19.8109L48.0926 20.0759C48.6867 21.0264 50.1153 22.7475 52.2236 24.2725L52.5166 23.8674L52.8096 23.4623C50.803 22.0108 49.4644 20.384 48.9406 19.5459L48.5166 19.8109ZM52.5166 23.8674L52.2236 24.2725C53.2618 25.0235 54.4701 25.7308 55.8309 26.2752L56.0166 25.8109L56.2023 25.3467C54.9287 24.8372 53.7918 24.1727 52.8096 23.4623L52.5166 23.8674ZM52.5166 23.8674L52.458 24.364C53.8061 24.523 56.0474 24.7101 58.4067 24.757C60.7568 24.8037 63.2644 24.7125 65.1251 24.299L65.0166 23.8109L64.9081 23.3228C63.1688 23.7093 60.7597 23.8036 58.4265 23.7572C56.1025 23.711 53.8938 23.5264 52.5752 23.3709L52.5166 23.8674ZM65.0166 23.8109L65.1251 24.299C67.3006 23.8156 70.7195 23.9351 74.0697 23.9983C75.7249 24.0296 77.353 24.0457 78.7586 23.9584C80.1463 23.8721 81.3922 23.6821 82.2402 23.2581L82.0166 22.8109L81.793 22.3637C81.141 22.6897 80.0744 22.8747 78.6965 22.9603C77.3364 23.0448 75.7458 23.0298 74.0885 22.9985C70.8137 22.9367 67.2326 22.8063 64.9081 23.3228L65.0166 23.8109ZM86.5166 24.8109L86.7816 25.2349C89.2704 23.6794 91.134 22.8356 93.201 21.2033L92.8912 20.8109L92.5813 20.4185C90.5646 22.011 88.8719 22.7492 86.2516 24.3869L86.5166 24.8109ZM92.8912 20.8109L93.201 21.2033C94.3108 20.327 95.4886 19.22 96.8903 17.6431L96.5166 17.3109L96.1429 16.9787C94.7726 18.5204 93.6368 19.585 92.5813 20.4185L92.8912 20.8109ZM82.0166 22.8109L82.2402 23.2581C83.363 22.6967 85.3543 22.2469 87.4473 21.9173C89.5202 21.591 91.6232 21.3924 92.9228 21.3099L92.8912 20.8109L92.8595 20.3119C91.5343 20.3961 89.4 20.5975 87.2918 20.9295C85.2038 21.2583 83.0702 21.7251 81.793 22.3637L82.0166 22.8109Z" fill="black"/>
<path d="M32.8677 58.432L32.8214 63.0332" stroke="black" stroke-linecap="round"/>
<path d="M32.7752 67.6343L32.6407 73.2438" stroke="black" stroke-linecap="round"/>
<path d="M32.7709 75.8282L31.9348 81.3109" stroke="black" stroke-linecap="round"/>
<path d="M29.6879 17.3961L33.7294 3.78595" stroke="black" stroke-linecap="round"/>
<path d="M35.6954 17.9698L28.9486 5.48261" stroke="black" stroke-linecap="round"/>
<path d="M26.449 5.54294C27.185 6.90518 28.4221 6.07032 28.9486 5.4826C28.9052 4.62115 28.5378 2.84751 27.4153 2.6446C26.0121 2.39097 25.529 3.84013 26.449 5.54294Z" stroke="black" stroke-linecap="round"/>
<path d="M35.2223 0.525172C34.028 0.694289 33.8602 2.64374 33.9256 3.59733C34.4559 4.00365 35.6958 4.50205 36.4135 3.245C37.3107 1.67369 36.715 0.313776 35.2223 0.525172Z" stroke="black" stroke-linecap="round"/>
<path d="M33.1075 19.0385L32.8848 25.6564" stroke="black" stroke-linecap="round"/>
<path d="M33.0151 28.2408L33.1873 34.418" stroke="black" stroke-linecap="round"/>
<path d="M32.5276 37.8839L33.0947 43.6202" stroke="black" stroke-linecap="round"/>
<path d="M32.7418 47.6538L32.9139 53.8309" stroke="black" stroke-linecap="round"/>
<path d="M111.624 59.432L111.67 64.0332" stroke="black" stroke-linecap="round"/>
<path d="M111.716 68.6343L111.851 74.2438" stroke="black" stroke-linecap="round"/>
<path d="M111.72 76.8282L112.556 82.3109" stroke="black" stroke-linecap="round"/>
<path d="M114.803 18.3961L110.762 4.78595" stroke="black" stroke-linecap="round"/>
<path d="M108.796 18.9698L115.543 6.48261" stroke="black" stroke-linecap="round"/>
<path d="M118.042 6.54294C117.306 7.90518 116.069 7.07032 115.542 6.4826C115.586 5.62115 115.953 3.84751 117.076 3.6446C118.479 3.39097 118.962 4.84013 118.042 6.54294Z" stroke="black" stroke-linecap="round"/>
<path d="M109.269 1.52517C110.463 1.69429 110.631 3.64374 110.566 4.59733C110.035 5.00365 108.795 5.50205 108.078 4.245C107.181 2.67369 107.776 1.31378 109.269 1.52517Z" stroke="black" stroke-linecap="round"/>
<path d="M111.384 20.0385L111.606 26.6564" stroke="black" stroke-linecap="round"/>
<path d="M111.476 29.2408L111.304 35.418" stroke="black" stroke-linecap="round"/>
<path d="M111.964 38.8839L111.396 44.6202" stroke="black" stroke-linecap="round"/>
<path d="M111.749 48.6538L111.577 54.8309" stroke="black" stroke-linecap="round"/>
<path d="M65.2676 34.3367L61.8937 34.1616" stroke="black" stroke-linecap="round"/>
<path d="M58.5197 33.9865L54.4092 33.6951" stroke="black" stroke-linecap="round"/>
<path d="M52.5166 32.8109L48.5166 30.7638" stroke="black" stroke-linecap="round"/>
<path d="M47.5166 29.4548L44.0166 26.3109" stroke="black" stroke-linecap="round"/>
<path d="M43.0166 24.8109L39.5166 19.3109" stroke="black" stroke-linecap="round"/>
<path d="M94.4258 29.693L102.012 29.429" stroke="black" stroke-linecap="round"/>
<path d="M95.8843 33.5587L99.8348 26.7932" stroke="black" stroke-linecap="round"/>
<path d="M99.0868 25.2459C98.6558 25.984 99.4059 26.585 99.8348 26.7932C100.229 26.5898 100.96 25.9975 100.733 25.2556C100.448 24.3282 99.6255 24.3234 99.0868 25.2459Z" stroke="black" stroke-linecap="round"/>
<path d="M103.98 29.6929C103.557 28.9824 102.588 29.2767 102.157 29.5127C102.118 29.9267 102.24 30.8024 103.04 30.9929C104.039 31.231 104.51 30.581 103.98 29.6929Z" stroke="black" stroke-linecap="round"/>
<path d="M94.723 31.517L90.1953 33.2949" stroke="black" stroke-linecap="round"/>
<path d="M88.0166 33.9183L82.665 33.9183" stroke="black" stroke-linecap="round"/>
<path d="M80.5166 34.3109L75.5166 34.3109" stroke="black" stroke-linecap="round"/>
<path d="M73.18 34.5127L68.6417 34.5118" stroke="black" stroke-linecap="round"/>
<path d="M92.8712 125.687L89.1816 125.673" stroke="black" stroke-linecap="round"/>
<path d="M85.4919 125.66L80.9928 125.565" stroke="black" stroke-linecap="round"/>
<path d="M78.9223 125.714L74.5166 125.714" stroke="black" stroke-linecap="round"/>
<path d="M125.735 122.215L136.695 126.16" stroke="black" stroke-linecap="round"/>
<path d="M125.346 128.226L135.278 121.391" stroke="black" stroke-linecap="round"/>
<path d="M135.201 118.892C134.117 119.638 134.801 120.869 135.278 121.391C135.969 121.342 137.386 120.962 137.536 119.838C137.723 118.433 136.555 117.96 135.201 118.892Z" stroke="black" stroke-linecap="round"/>
<path d="M139.327 127.629C139.177 126.436 137.612 126.282 136.849 126.354C136.529 126.888 136.144 128.131 137.16 128.84C138.431 129.726 139.514 129.12 139.327 127.629Z" stroke="black" stroke-linecap="round"/>
<path d="M124.459 125.646L119.15 125.471" stroke="black" stroke-linecap="round"/>
<path d="M117.08 125.619L112.129 125.835" stroke="black" stroke-linecap="round"/>
<path d="M109.342 125.201L104.75 125.808" stroke="black" stroke-linecap="round"/>
<path d="M101.511 125.484L96.5608 125.7" stroke="black" stroke-linecap="round"/>
<path d="M53.1568 125.687L56.8464 125.673" stroke="black" stroke-linecap="round"/>
<path d="M60.536 125.66L65.0352 125.565" stroke="black" stroke-linecap="round"/>
<path d="M67.1056 125.714L71.5166 125.714" stroke="black" stroke-linecap="round"/>
<path d="M44.5166 125.484L49.4672 125.7" stroke="black" stroke-linecap="round"/>
<path d="M23.1568 125.687L26.8464 125.673" stroke="black" stroke-linecap="round"/>
<path d="M30.536 125.66L35.0352 125.565" stroke="black" stroke-linecap="round"/>
<path d="M37.1056 125.714L42.0166 125.714" stroke="black" stroke-linecap="round"/>
<path d="M14.5166 125.484L19.4672 125.7" stroke="black" stroke-linecap="round"/>
</svg>

<svg xmlns="http://www.w3.org/2000/svg" viewBox="0 0 144 144" width="144" height="144" fill="none"><path stroke="rgba(0, 0, 0, .87)" stroke-linecap="round" d="M44.517 21.31c-1.834-1.5-9.7-1.7-24.5 9.5S.85 49.81.517 52.31c1.833 3.5 2 6.5 16 19.5 1.099 1.022 12.5-6 16-12 2 7.334 5.6 24.3 4 33.5-2 11.501 4 41.001 0 48.501M99.517 21.044c1.833-1.5 9.2-1.7 24 9.5s19.166 19 19.5 21.5c-1.834 3.5-2 6.5-16 19.5-1.1 1.02-12.5-6-16-12-2 7.333-5.6 24.3-4 33.5 2 11.5-4 41 0 48.5M36.517 141.811c6.333.833 21.2 2.5 30 .5 11-2.5 30.5-3 34-1.5 2.8 1.2 5.5 1 6.5 1"/><path fill="rgba(0, 0, 0, .87)" d="m44.517 21.31-.176-.467a.5.5 0 0 0-.24.745zm48.5 4.5-.258-.428zm6.5-5 .416.278a.5.5 0 0 0-.037-.603zm-51-1 .093-.49a.5.5 0 0 0-.269.023zm48-2.5.38-.325a.5.5 0 0 0-.485-.163zm-31 4-.039-.498zm21.5-2 .098.491zm-34.5 4.557-.293.406zm12.5-.056-.109-.488zm-20.5-2.5-.416.277c.863 1.296 2.551 3.261 4.837 5.008 2.287 1.747 5.202 3.297 8.517 3.711l.062-.496.062-.496c-3.085-.386-5.837-1.836-8.034-3.514s-3.81-3.563-4.612-4.767zm13 8.5-.062.496c3.982.498 7.38 1 10.321 1.314 2.948.313 5.491.443 7.796.187l-.055-.497-.056-.497c-2.195.244-4.652.124-7.579-.188-2.933-.312-6.286-.809-10.303-1.311zm18 1.5.055.497c2.304-.256 6.095-1.27 9.598-2.396 3.493-1.123 6.797-2.388 8.104-3.172l-.257-.43-.258-.428c-1.193.716-4.388 1.95-7.895 3.078-3.498 1.124-7.207 2.11-9.403 2.354zm17.5-5.5.257.429c1.725-1.035 4.576-2.028 6.659-5.152l-.416-.277-.416-.277c-1.918 2.876-4.429 3.7-6.342 4.848zm-37 0-.186.464c5.068 2.027 12.15 3.043 16.74 2.533l-.054-.497-.056-.497c-4.41.49-11.327-.494-16.259-2.467zm16.5 2.5.055.497c4.459-.496 10.092-1 14.21-3.573l-.265-.424-.265-.424c-3.883 2.426-9.25 2.922-13.79 3.427zm27-7.5.38-.326-3-3.5-.38.326-.38.325 3 3.5zm-55 .5.175.468 4-1.5-.175-.468-.176-.468-4 1.5zm4-1.5-.094.491c3.503.667 11.86 1.913 17.132 1.507l-.038-.498-.039-.499c-5.128.395-13.37-.826-16.868-1.492zm17 1.5.038.498c3.25-.25 8.003-.625 12.255-1 4.235-.374 8.02-.751 9.305-1.008l-.098-.49-.099-.49c-1.216.243-4.93.615-9.195.992-4.248.375-8.995.75-12.245 1zm21.5-2 .098.49c2.004-.4 7.174-1.501 9.506-2.001l-.104-.49-.105-.488c-2.335.5-7.498 1.6-9.494 1.999zm-38.5.5-.424.265c.594.95 2.022 2.671 4.13 4.197l.294-.406.293-.405c-2.007-1.451-3.346-3.078-3.87-3.916zm4 4.056-.293.406a17 17 0 0 0 3.607 2.002l.186-.464.185-.464a16 16 0 0 1-3.392-1.885zm0 0-.059.497c1.348.159 3.59.346 5.949.393 2.35.047 4.857-.045 6.718-.458l-.108-.488-.109-.488c-1.74.386-4.148.48-6.482.434a64 64 0 0 1-5.85-.386zm12.5-.056.108.488c2.176-.483 5.594-.364 8.945-.3 1.655.03 3.283.047 4.689-.04 1.387-.087 2.633-.277 3.481-.7l-.223-.448-.224-.447c-.652.326-1.719.51-3.097.596-1.36.085-2.95.07-4.608.038-3.274-.061-6.855-.192-9.18.325zm21.5 1 .265.424c2.488-1.556 4.352-2.4 6.419-4.032l-.31-.392-.31-.392c-2.016 1.592-3.71 2.33-6.33 3.968zm6.374-4 .31.392c1.11-.876 2.288-1.983 3.69-3.56l-.374-.332-.374-.332c-1.37 1.541-2.506 2.606-3.562 3.44zm-10.874 2 .223.447c1.123-.561 3.114-1.011 5.207-1.34a64 64 0 0 1 5.476-.608l-.032-.5-.032-.498c-1.325.084-3.459.285-5.567.617-2.088.33-4.222.796-5.499 1.435z"/><path stroke="rgba(0, 0, 0, .87)" stroke-linecap="round" d="m32.868 58.432-.047 4.601M32.775 67.634l-.134 5.61M32.77 75.828l-.835 5.483M29.688 17.396l4.041-13.61M35.695 17.97 28.95 5.483M26.449 5.543c.736 1.362 1.973.527 2.5-.06-.044-.862-.411-2.635-1.534-2.838-1.403-.254-1.886 1.195-.966 2.898ZM35.222.525c-1.194.17-1.362 2.119-1.296 3.072.53.407 1.77.905 2.487-.352.898-1.571.302-2.931-1.19-2.72ZM33.108 19.039l-.223 6.617M33.015 28.24l.172 6.178M32.528 37.884l.567 5.736M32.742 47.654l.172 6.177M111.624 59.432l.046 4.601M111.716 68.634l.135 5.61M111.72 76.828l.836 5.483M114.803 18.396l-4.041-13.61M108.796 18.97l6.747-12.487M118.042 6.543c-.736 1.362-1.973.527-2.5-.06.044-.862.411-2.635 1.534-2.838 1.403-.254 1.886 1.195.966 2.898ZM109.269 1.525c1.194.17 1.362 2.119 1.297 3.072-.531.407-1.771.905-2.488-.352-.897-1.571-.302-2.931 1.191-2.72ZM111.384 20.039l.222 6.617M111.476 29.24l-.172 6.178M111.964 38.884l-.568 5.736M111.749 48.654l-.172 6.177M65.268 34.337l-3.374-.175M58.52 33.987l-4.11-.292M52.517 32.81l-4-2.046M47.517 29.455l-3.5-3.144M43.017 24.81l-3.5-5.5M94.426 29.693l7.586-.264M95.884 33.559l3.95-6.766M99.087 25.246c-.431.738.319 1.339.748 1.547.394-.203 1.125-.796.898-1.537-.285-.928-1.108-.933-1.646-.01ZM103.98 29.693c-.423-.71-1.392-.416-1.823-.18-.039.414.083 1.29.883 1.48.999.238 1.47-.412.94-1.3ZM94.723 31.517l-4.528 1.778M88.017 33.918h-5.352M80.517 34.31h-5M73.18 34.513l-4.538-.001M92.871 125.687l-3.69-.014M85.492 125.66l-4.5-.095M78.922 125.714h-4.405M125.735 122.215l10.96 3.945M125.346 128.226l9.932-6.835M135.201 118.892c-1.084.746-.4 1.977.077 2.499.691-.049 2.108-.429 2.258-1.553.187-1.405-.981-1.878-2.335-.946ZM139.327 127.629c-.15-1.193-1.715-1.347-2.478-1.275-.32.534-.705 1.777.311 2.486 1.271.886 2.354.28 2.167-1.211ZM124.459 125.646l-5.309-.175M117.08 125.619l-4.951.216M109.342 125.201l-4.592.607M101.511 125.484l-4.95.216M53.157 125.687l3.69-.014M60.536 125.66l4.5-.095M67.106 125.714h4.41M44.517 125.484l4.95.216M23.157 125.687l3.69-.014M30.536 125.66l4.5-.095M37.106 125.714h4.91M14.517 125.484l4.95.216"/></svg>
